X: 2
T: Bara bada bastu
M: 4/4
L: 1/8
Q: 1/4=110
R: schottis
K: Am
%
% --  Intro --
%
|:"Am" Ae z f"F"c z eB|"E7" z eB z dBcB:|
%
% --  Vers --
%
L: 1/16
"Am" AzAA §z3 A AzAA z4|"Dm" AzAA zAzA "E7" E2E2 E4|
w: Klock-on slår, nu är det dags. All be-kym-ber för-svin-ner strax
"Am" AzAA zAzA A2A2 A4 |"Dm" AzAA zAzd "E7" E2E2 E4|
w: Bäs-ta båo-ti för kropp och själ. Fyr-a väg-gar i trä-pan-el.
%
% -- Refräng --
%
A,B,CD|:"Am" E2A,2E2A,2 "F" z F z F F2E2|"G" B,2B,2 C2D2 "C" E4 z4|
w: Vi ska ba-da bas-tu, bas-tu. Ång-on opp och släpp all stress i-dag.
"F" A,z A,A,z A,A,A, "Dm7" Cz CCz CCz|"E7" B,2C2 B,2C2 B,2 z2 A,B,CD |
w: Bas-tu-brö-der e je vi som glö-der, hun-dra gra-der, nå-jaa. Ba-ra ba-da
"Am" E2A,2E2A,2 "F" z F z F F2E2 | "G" B,2B,2 C2D2 "C" E4 z2 A, |
w: bas-tu, bas-tu. Heit-tää på, så svet-tin ba-ra yr. Oh
"F" F2 zE D2 z C "Dm6" B,4 z4 | [1 "Em" B,2C2 B,2G,2 "Am" A,4 A,B,CD] :| [2 "Em" B,2C2 B,2G,2 "Am" A,4 z2z2 ]
w: whoa-a-a-a-ah, ba-da bas-tu jåa. Vi ska ba-da ba-da bas-tu jåa.
